img/icon/registr.svg

<svg width="18" height="18" viewBox="0 0 18 18" fill="none" xmlns="http://www.w3.org/2000/svg">
<path fill-rule="evenodd" clip-rule="evenodd" d="M5 0C2.23858 0 0 2.23858 0 5V13C0 15.7614 2.23858 18 5 18H13C15.7614 18 18 15.7614 18 13V5C18 2.23858 15.7614 0 13 0H5ZM10 6C10 5.44772 9.55228 5 9 5C8.44772 5 8 5.44772 8 6V8H6C5.44772 8 5 8.44772 5 9C5 9.55228 5.44772 10 6 10H8V12C8 12.5523 8.44772 13 9 13C9.55228 13 10 12.5523 10 12V10H12C12.5523 10 13 9.55228 13 9C13 8.44772 12.5523 8 12 8H10V6Z" fill="#4E6BB9"/>
</svg>

<svg width="18" height="18" fill="none" xmlns="http://www.w3.org/2000/svg"><path fill-rule="evenodd" clip-rule="evenodd" d="M5 0a5 5 0 0 0-5 5v8a5 5 0 0 0 5 5h8a5 5 0 0 0 5-5V5a5 5 0 0 0-5-5H5zm5 6a1 1 0 0 0-2 0v2H6a1 1 0 0 0 0 2h2v2a1 1 0 1 0 2 0v-2h2a1 1 0 1 0 0-2h-2V6z" fill="#4E6BB9"/></svg>
